T: Nicky's Archive
M: 4/4
L: 1/8
K: Dmaj
A2 F2 A3 B | A2 G2 GFEB | c E3 c2 cB | Acde fedB | A2 F2 A3 B | A2 G2 GFEB | c2 e2 c2 cB | AGFE DEFG :||: A2 f2 f3 c | e2 d2 dcBA | B2 g2 g3 f | edfd AGFG | A2 f2 f3 c | e2 d2 dcBd | c2 E2 c2 cB |AGFE DEFG :|
